X:1
T:D Major Oliver Holden, 1806
T:William Cowper, 1779 (Hymn 83)   77. 77.
T:Iceland No copyright. Transcribed from The Sacred Minstrel, 1806.
%%score [ 1 2 3 4 ]
L:1/8
M:2/4
K:D
V:1 treble nm="Treble" snm="Tr."
V:2 treble nm="Counter" snm="C."
V:3 treble-8 nm="Tenor" snm="T."
V:4 bass nm="Bass" snm="B."
V:1
 A2 A2 | d2 d2 | d2 c2 | d4 || BA BG | F2 EF | A2 ^G2 | A4 || A2 A2 | B2 B2 | BA Bc | (d2 c2) || %12
w: 1.~Win- ter|has a|joy for|me,|While * * the|Sav- ior's *|charms I|read;|Low- ly,|meek, from|ble- * mish *|free, *|
w: 2.~Spring re-|turns, and|brings a-|long|Life- * * in-|vi- go- *|ra- ting|suns:|Hark! the|tur- tle's|plain- * tive *|song, *|
 e2 d2 | A2 d2 | d2 dc | B^ABc || d2 c2 | B2 e2 | d2 c2 | d4 |] %20
w: In the|snow- drop's|pen- sive *|head,~ * * *|In the|snow- drop's|pen- sive|head.|
w: Seems to|speak his|dy- ing *|groans, * * *|Seems to|speak his|dy- ing|groans.|
V:2
 F2 E2 | D2 G2 | F2 E2 | F4 || D2 C2 | D2 E2 | E2 E2 | E4 || F2 E2 | G2 E2 | D2 D2 | (D2 E2) || %12
w: 3.~Sum- mer|has a|thou- sand|charms,|All ex-|pres- sive|of His|worth;|'Tis His|sun that|lights and|warms, *|
w: 4.~What, has|au- tumn|left to|say|No- thing,|of a|Sav- ior's|grace?|Yes, the|beams of|mil- der|day *|
 G2 G2 | E2 F2 | F2 F2 | F4 || A2 A2 | F2 G2 | F2 E2 | F4 |] %20
w: His the|air that|cools the|earth,|His the|air that|cools the|earth.|
w: Tell me|of His|smi- ling|face,|Tell me|of His|smi- ling|face.|
V:3
 d2 cd | BA BG | F2 E2 | D4 || GF GE | A2 cd | c2 B2 | A4 || d2 cd | e2 G2 | GF GF | (F2 E2) || %12
w: 5.~Light ap- *|pears * * with|ear- ly|dawn|While * * the|sun makes *|haste to|rise;|See His *|blee- ding|beau- * ties, *|drawn *|
w: 6.~Eve- ning, *|with * * a|si- lent|pace,|Slow- * * ly|mo- ving *|in the|west,|Shows an *|em- blem|of * His *|grace, *|
 c2 d2 | c2 A2 | B2 B^A | Bcde || f2 ef | d2 B2 | FG E2 | D4 |] %20
w: On the|blu- shes|of the *|skies, * * *|On the *|blu- shes|of * the|skies.|
w: Points to|an e-|ter- nal *|rest, * * *|Points to *|an e-|ter- * nal|rest.|
V:4
 D,2 E,2 | F,2 G,2 | A,2 A,,2 | D,4 || D,2 E,2 | F,2 A,2 | E,2 E,2 | A,,4 || D,2 E,F, | E,2 E,2 | %10
 D,2 D,2 | A,,4 || A,2 B,2 | A,2 F,2 | D,2 F,2 | B,,4 || D,2 E,2 | F,2 G,2 | A,2 A,,2 | D,4 |] %20

